X:475
T:Within a Mile of Edinburgh. RH.475
R:strathspey
S:Rev.R.Harrison’s MS,c1815,Cumbria
O:England
A:Temple Sowerby,Cumbria
Z:vmp.Simon Wilson. Review PJH, 2008.
M:C
L:1/8
Q:2/4=80
K:D
(f>g)|(a<f) (e>f).d2(f<d)|(B<d) (AF)A2(d>e)|\
f<a (b<d’) (a<f) (de/f/)|(f2e2)d2(f>g)|!
(a<f) (e>f)d2(f>d)|(B<d) (A>F)A2(d>e)|\
(f<a) (b<d’) a<f (e>{edcd}f/)|d4z4|!
(d>e)(f>g) (af)d’2|(d>e)(f>g) (a>f) d’d|\
(d>edB) (AF) (A>d)|!
(fd)(fa)b2d’c’/b/|(a<f)(f<d) (B<d) (A<d)|\
(f<a) (e>{edcd}f/)d2|]

